static/img/people-line.svg

<svg viewBox="0 0 100 100" xmlns="http://www.w3.org/2000/svg"><path d="m73.9 46.4c5.8-2.4 10-8.1 10-14.7 0-8.8-7.1-15.9-15.9-15.9s-15.9 7.1-15.9 15.9c0 6.7 4.1 12.4 10 14.7-8.8 1.9-16 8-19.6 16-2.4-1.5-5-2.7-7.9-3.3 5.1-2.2 8.6-7.2 8.6-13.1 0-7.9-6.4-14.2-14.2-14.2s-14.2 6.3-14.2 14.2c0 5.9 3.6 10.9 8.6 13.1-11 2.5-19.3 12.5-19.3 24.3 0 .5.4.9.9.9h48c.5 0 .9-.4.9-.9 0-3.1-.6-6-1.6-8.8h42.7c.5 0 .9-.4.9-.9 0-13.4-9.4-24.6-22-27.3zm-20-14.7c0-7.8 6.3-14.1 14.1-14.1s14.1 6.3 14.1 14.1-6.3 14.1-14.1 14.1-14.1-6.4-14.1-14.1zm-37.3 14.3c0-6.9 5.6-12.4 12.4-12.4s12.4 5.5 12.4 12.4-5.5 12.4-12.4 12.4-12.4-5.5-12.4-12.4zm-10.7 36.4c.5-12.3 10.7-22.2 23.1-22.2s22.6 9.9 23.1 22.2zm45.6-9.6c-1.7-3.7-4.3-6.9-7.6-9.3 4-9.3 13.2-15.9 24-15.9 14.1 0 25.6 11.2 26.1 25.2z" fill="#1e1e1e"/></svg>

<svg id="Layer_1" xmlns="http://www.w3.org/2000/svg" viewBox="0 0 100 100"><style></style><path d="M73.9 46.4c5.8-2.4 10-8.1 10-14.7 0-8.8-7.1-15.9-15.9-15.9s-15.9 7.1-15.9 15.9c0 6.7 4.1 12.4 10 14.7-8.8 1.9-16 8-19.6 16-2.4-1.5-5-2.7-7.9-3.3 5.1-2.2 8.6-7.2 8.6-13.1 0-7.9-6.4-14.2-14.2-14.2S14.8 38.1 14.8 46c0 5.9 3.6 10.9 8.6 13.1-11 2.5-19.3 12.5-19.3 24.3 0 .5.4.9.9.9h48c.5 0 .9-.4.9-.9 0-3.1-.6-6-1.6-8.8H95c.5 0 .9-.4.9-.9 0-13.4-9.4-24.6-22-27.3zm-20-14.7c0-7.8 6.3-14.1 14.1-14.1s14.1 6.3 14.1 14.1S75.8 45.8 68 45.8s-14.1-6.4-14.1-14.1zM16.6 46c0-6.9 5.6-12.4 12.4-12.4S41.4 39.1 41.4 46 35.9 58.4 29 58.4 16.6 52.9 16.6 46zM5.9 82.4C6.4 70.1 16.6 60.2 29 60.2s22.6 9.9 23.1 22.2H5.9zm45.6-9.6c-1.7-3.7-4.3-6.9-7.6-9.3 4-9.3 13.2-15.9 24-15.9C82 47.6 93.5 58.8 94 72.8H51.5z" fill="#1e1e1e"/></svg>
